source/img/logo/cat-logo-mobile.svg

<svg width="190" height="38" viewBox="0 0 190 38" fill="none" xmlns="http://www.w3.org/2000/svg">
<g clip-path="url(#clip0_58747_419)">
<path d="M6.07 20.72V18.46C12.7536 17.5423 19.4937 17.0979 26.24 17.13C26.24 17.73 26.24 18.34 26.18 18.95C28.0976 18.099 30.1128 17.4877 32.18 17.13C30.8625 13.722 28.4618 10.8412 25.3471 8.93087C22.2325 7.02052 18.5764 6.1864 14.9414 6.55683C11.3064 6.92727 7.89379 8.48172 5.22852 10.9811C2.56325 13.4804 0.792971 16.7863 0.190002 20.39L6.07 20.72Z" fill="#FDC305"/>
<path d="M27.24 24.23C26.08 25.51 25.85 25.43 25.85 27.68C25.85 28.59 25.85 32.58 25.85 36.86C28.1425 35.346 30.0245 33.2879 31.328 30.8694C32.6315 28.4509 33.3158 25.7474 33.32 23C33.3068 21.9591 33.1997 20.9216 33 19.9C30.9282 21.1295 28.9968 22.5814 27.24 24.23Z" fill="#FDC305"/>
<path d="M6.36 25.72C6.36 25.72 2.57 24.28 1.17 23.89C0.787067 23.7693 0.396097 23.6757 0 23.61C0.108395 26.496 0.965588 29.3041 2.48739 31.7586C4.00919 34.2131 6.14326 36.2296 8.68 37.61L6.36 25.72Z" fill="#FDC305"/>
<path d="M26.29 17.12C26.3307 11.5986 25.862 6.08528 24.89 0.65C24.89 0.65 24.75 -0.64 24 0.41C23.4109 1.65814 23.0067 2.98539 22.8 4.35C18.5418 4.07577 14.2675 4.18957 10.03 4.69C9.24 2 7.85 0.75 7.18 1C6.51 1.25 6.46 4.31 6.46 4.31L6.13 18.41C12.8113 17.506 19.548 17.0749 26.29 17.12V17.12Z" fill="#F06351"/>
<path d="M12.41 14C12.41 13.91 13.41 14.68 13.82 14.92C14.23 15.16 14.43 15.34 14.43 15.51C14.43 15.68 14.16 15.85 13.8 15.85C13.44 15.85 12.89 15.73 12.8 15.58H13.74H14.03C13.4207 15.1294 12.8757 14.5978 12.41 14V14Z" fill="black"/>
<path d="M19.89 14.11L18.8 15.44C18.8 15.5 18.63 15.79 18.98 15.74C19.3942 15.6783 19.8023 15.5812 20.2 15.45C20.31 15.45 20.27 15.26 20.09 15.28C19.91 15.3 19.4 15.33 19.09 15.39L19.93 14.13C19.93 14.13 20 14 19.89 14.11Z" fill="black"/>
<path d="M16.75 20.2C17.2135 19.9958 17.5967 19.6443 17.84 19.2C18.12 18.55 17.84 18.29 17.4 18.2C16.7979 18.0902 16.1765 18.2116 15.66 18.54C15.27 18.9 15.32 19.26 15.61 19.54C15.9613 19.8062 16.3442 20.0279 16.75 20.2V20.2Z" fill="black"/>
<path d="M16.35 21.45C16.2379 21.6785 16.0816 21.8825 15.89 22.05C15.6052 22.2791 15.2551 22.4122 14.89 22.43C14.3638 22.472 13.8406 22.3189 13.42 22C13.2222 21.8808 13.0436 21.7324 12.89 21.56C12.7895 21.4491 12.6669 21.3605 12.53 21.3C12.53 21.3 13.28 25.4 15.1 26.05C16.92 26.7 17.24 25.3 17.3 24.92C17.3601 23.7851 17.0742 22.6588 16.48 21.69C16.46 21.38 16.45 21.58 16.35 21.45Z" fill="#F06351"/>
<path d="M14.71 22.59C14.2453 22.5247 13.7989 22.3651 13.3982 22.1209C12.9975 21.8767 12.651 21.5531 12.38 21.17C12.3667 21.157 12.3561 21.1414 12.3489 21.1242C12.3417 21.1071 12.338 21.0886 12.338 21.07C12.338 21.0514 12.3417 21.0329 12.3489 21.0158C12.3561 20.9986 12.3667 20.983 12.38 20.97C12.393 20.9567 12.4086 20.9461 12.4258 20.9389C12.4429 20.9317 12.4614 20.928 12.48 20.928C12.4986 20.928 12.5171 20.9317 12.5342 20.9389C12.5514 20.9461 12.567 20.9567 12.58 20.97C13.0848 21.6642 13.843 22.1313 14.69 22.27V22.27C15.0217 22.245 15.3426 22.1413 15.6261 21.9674C15.9096 21.7934 16.1475 21.5544 16.32 21.27L16.46 21.08L16.56 21.29C16.56 21.29 16.93 22.05 17.56 22.09C18.19 22.13 18.61 21.68 19.17 20.81C19.183 20.7967 19.1986 20.7861 19.2158 20.7789C19.2329 20.7717 19.2514 20.768 19.27 20.768C19.2886 20.768 19.3071 20.7717 19.3242 20.7789C19.3414 20.7861 19.357 20.7967 19.37 20.81C19.4023 20.8306 19.4255 20.8629 19.4348 20.9C19.4441 20.9372 19.4388 20.9766 19.42 21.01C18.78 22.01 18.15 22.45 17.54 22.41C17.308 22.3763 17.0867 22.2904 16.8927 22.1587C16.6987 22.0271 16.5371 21.8531 16.42 21.65C16.2233 21.9245 15.9676 22.1514 15.6717 22.3141C15.3758 22.4767 15.0472 22.571 14.71 22.59V22.59Z" fill="black"/>
<path d="M26.24 18.92C24.4445 20.5437 22.7512 22.277 21.17 24.11C19.5987 25.9361 17.8238 27.5768 15.88 29C15.66 28.47 14.26 27.49 14.26 27.49C14.26 27.49 11.13 25.35 9.08001 23.67C7.97415 22.7373 6.92871 21.7353 5.95001 20.67L3.95001 20.56C6.84019 24.7655 11.0702 27.8676 15.95 29.36C16.81 29.22 19.22 27.5 21.02 26.1C23.1389 24.2819 25.124 22.3134 26.96 20.21C27.4625 19.621 27.8493 18.9425 28.1 18.21C27 18.6 26.24 18.92 26.24 18.92Z" fill="#F06351"/>
</g>
<g clip-path="url(#clip1_58747_419)">
<path d="M90.2645 28.5385C89.3696 27.2762 88.9253 25.7627 89 24.2308V17.8462C88.8916 16.2977 89.3081 14.7575 90.1855 13.4615C91.0548 12.4615 92.3983 12 94.374 12C96.3498 12 97.6143 12.4615 98.4045 13.3077C99.2626 14.3794 99.6846 15.7214 99.59 17.0769V18.6154H95.7175V16.8462C95.7488 16.3229 95.6681 15.799 95.4804 15.3077C95.3802 15.1094 95.2212 14.9448 95.024 14.8351C94.8269 14.7255 94.6005 14.6757 94.374 14.6923C93.8208 14.6923 93.4257 14.8462 93.2676 15.2308C93.0888 15.7773 93.0086 16.3499 93.0305 16.9231V25.1538C92.9888 25.71 93.0978 26.267 93.3466 26.7692C93.5047 27.1538 93.8999 27.3077 94.4531 27.3077C95.0063 27.3077 95.3224 27.1538 95.4804 26.7692C95.6601 26.2494 95.7405 25.7019 95.7175 25.1538V23.3077H99.59V24.8462C99.6704 26.2238 99.2508 27.5852 98.4045 28.6923C97.6143 29.6154 96.2707 30.0769 94.374 30.0769C92.4773 30 91.0548 29.5385 90.2645 28.5385Z" fill="#111111"/>
<path d="M104.253 12.2308H108.757L112.077 29.7692H108.441L107.809 26.0769H105.201L104.569 29.7692H100.854L104.253 12.2308ZM107.493 23.7692L106.545 16.9231L105.596 23.7692H107.493Z" fill="#111111"/>
<path d="M114.843 15.1538H112.156V12.2308H121.56V15.0769H118.873V29.7692H114.843V15.1538Z" fill="#111111"/>
<path d="M128.752 12.2308H135.707V14.0769H131.202V19.8462H134.837V21.6154H131.202V28.0769H135.707V29.8462H128.673V12.2308H128.752Z" fill="#111111"/>
<path d="M137.761 12.2308H139.5L144.637 23.8462V12.2308H146.692V29.7692H145.111L139.895 17.7692V29.7692H137.761V12.2308Z" fill="#111111"/>
<path d="M149.063 12.2308H156.017V14.0769H151.513V19.8462H155.148V21.6154H151.513V28.0769H156.017V29.8462H149.063V12.2308Z" fill="#111111"/>
<path d="M158.072 12.2308H161.707C163.137 12.1346 164.559 12.5144 165.738 13.3077C166.607 14 167.002 15.2308 167.002 16.8462C167.002 19.0769 166.291 20.4615 164.79 20.9231L167.318 29.6923H164.869L162.498 21.4615H160.522V29.6923H157.993V12.2308H158.072ZM161.549 19.7692C162.364 19.8346 163.176 19.6165 163.841 19.1538C164.315 18.7692 164.552 18 164.552 16.8462C164.574 16.273 164.494 15.7004 164.315 15.1538C164.137 14.7617 163.832 14.4373 163.446 14.2308C162.902 13.9893 162.304 13.8836 161.707 13.9231H160.601V19.6923H161.549V19.7692Z" fill="#111111"/>
<path d="M170.163 28.4615C169.342 27.1166 168.956 25.5617 169.057 24V18.1538C169.038 17.0391 169.17 15.9268 169.452 14.8462C169.717 14.0386 170.244 13.3367 170.954 12.8462C171.836 12.3377 172.854 12.0967 173.878 12.1538C175.538 12.1538 176.723 12.5385 177.434 13.3846C178.252 14.5019 178.644 15.8624 178.541 17.2308V17.8462H176.17V17.3077C176.173 16.6635 176.12 16.0201 176.012 15.3846C175.945 14.983 175.718 14.6235 175.379 14.3846C174.935 14.1008 174.408 13.9658 173.878 14C173.311 13.9647 172.75 14.1284 172.297 14.4615C172.111 14.614 171.959 14.8018 171.851 15.0134C171.742 15.2251 171.679 15.4561 171.665 15.6923C171.561 16.38 171.508 17.0741 171.507 17.7692V24.3077C171.449 25.3038 171.61 26.3006 171.981 27.2308C172.297 27.8462 172.93 28.0769 173.878 28.0769C174.252 28.1223 174.632 28.0589 174.97 27.8947C175.307 27.7304 175.587 27.4727 175.775 27.1538C176.192 26.1811 176.381 25.1299 176.328 24.0769V22.8462H174.036V21.0769H178.62V29.7692H177.039L176.802 27.7692C176.595 28.4395 176.163 29.0231 175.576 29.4273C174.989 29.8315 174.28 30.0331 173.562 30C172.909 30.0374 172.256 29.9164 171.663 29.6479C171.07 29.3794 170.555 28.9717 170.163 28.4615V28.4615Z" fill="#111111"/>
<path d="M183.678 23.6154L179.805 12.3077H182.176L184.942 20.7692L187.629 12.3077H190L186.128 23.6154V29.7692H183.757V23.6154H183.678Z" fill="#111111"/>
</g>
<defs>
<clipPath id="clip0_58747_419">
<rect width="33.32" height="37.61" fill="white"/>
</clipPath>
<clipPath id="clip1_58747_419">
<rect width="101" height="18" fill="white" transform="translate(89 12)"/>
</clipPath>
</defs>
</svg>

<svg width="190" height="38" fill="none" xmlns="http://www.w3.org/2000/svg"><g clip-path="url(#a)"><path d="M6 20.7v-2.2c6.8-1 13.5-1.4 20.2-1.4V19c1.9-.8 4-1.4 6-1.8a16.7 16.7 0 0 0-32 3.3l5.9.3ZM27.2 24.2c-1.1 1.3-1.3 1.2-1.3 3.5v9.2a16.6 16.6 0 0 0 7.1-17c-2 1.2-4 2.7-5.8 4.3ZM6.4 25.7 1.2 24 0 23.6a16.6 16.6 0 0 0 8.7 14L6.4 25.7Z" fill="#FDC305"/><path d="M26.3 17.1c0-5.5-.4-11-1.4-16.5 0 0-.1-1.2-.9-.2-.6 1.3-1 2.6-1.2 4-4.3-.3-8.5-.2-12.8.3C9.2 2 7.8.7 7.2 1c-.7.3-.7 3.3-.7 3.3L6 18.4c6.7-.9 13.4-1.3 20.2-1.3Z" fill="#F06351"/><path d="m12.4 14 1.4 1c.4.2.6.3.6.5s-.2.3-.6.3c-.4 0-1 0-1-.2H14L12.4 14ZM19.9 14.1l-1.1 1.3c0 .1-.2.4.2.3l1.2-.3-.1-.1h-1l.8-1.2s.1-.1 0 0ZM16.8 20.2c.4-.2.8-.6 1-1 .3-.6 0-1-.4-1-.6-.1-1.2 0-1.7.3-.4.4-.4.8 0 1l1 .7Z" fill="#000"/><path d="M16.4 21.4a2 2 0 0 1-.5.7c-.3.2-.6.3-1 .3-.5 0-1 0-1.5-.4l-.5-.4a1 1 0 0 0-.4-.3s.8 4.1 2.6 4.8c1.8.6 2.1-.8 2.2-1.2 0-1.1-.2-2.2-.8-3.2l-.1-.3Z" fill="#F06351"/><path d="M14.7 22.6a3.4 3.4 0 0 1-2.4-1.5.1.1 0 0 1 0-.1.1.1 0 0 1 .3 0c.5.7 1.2 1.1 2 1.3a2 2 0 0 0 1.7-1l.2-.2v.2s.4.8 1 .8c.7 0 1.1-.4 1.7-1.3a.1.1 0 0 1 .2 0 .2.2 0 0 1 0 .2c-.6 1-1.3 1.4-1.9 1.4a1.5 1.5 0 0 1-1-.8 2.3 2.3 0 0 1-1.8 1Z" fill="#000"/><path d="M26.2 19a58.6 58.6 0 0 0-5 5.1 31.6 31.6 0 0 1-5.3 4.9c-.2-.5-1.6-1.5-1.6-1.5S11 25.4 9 23.7l-3.1-3-2-.1c2.8 4.2 7 7.3 12 8.8.8-.2 3.2-1.9 5-3.3 2.1-1.8 4.1-3.8 6-5.9.5-.6.8-1.3 1.1-2l-1.9.7Z" fill="#F06351"/></g><g clip-path="url(#b)" fill="#111"><path d="M90.3 28.5a6.9 6.9 0 0 1-1.3-4.3v-6.4a7 7 0 0 1 1.2-4.3c.9-1 2.2-1.5 4.2-1.5s3.2.5 4 1.3c.9 1 1.3 2.4 1.2 3.8v1.5h-3.9v-1.8c0-.5 0-1-.2-1.5l-.5-.5-.6-.1c-.6 0-1 .1-1.1.5-.2.6-.3 1.1-.3 1.7v8.3l.3 1.6c.2.4.6.5 1.2.5.5 0 .8-.1 1-.5.2-.6.2-1.1.2-1.6v-1.9h3.9v1.5c0 1.4-.3 2.8-1.2 3.9-.8 1-2.1 1.4-4 1.4-2-.1-3.3-.6-4.1-1.6ZM104.3 12.2h4.5l3.3 17.6h-3.7l-.6-3.7h-2.6l-.6 3.7h-3.7l3.4-17.6Zm3.2 11.6-1-6.9-.9 6.9h1.9ZM114.8 15.2h-2.6v-3h9.4v2.9h-2.7v14.7h-4V15.2ZM128.8 12.2h7v1.9h-4.6v5.7h3.6v1.8h-3.6v6.5h4.5v1.7h-7V12.2ZM137.8 12.2h1.7l5.1 11.6V12.2h2v17.6h-1.5l-5.2-12v12h-2.1V12.2ZM149 12.2h7v1.9h-4.5v5.7h3.6v1.8h-3.6v6.5h4.5v1.7h-7V12.2ZM158 12.2h3.7c1.4 0 2.9.3 4 1.1 1 .7 1.3 2 1.3 3.5 0 2.3-.7 3.7-2.2 4.1l2.5 8.8H165l-2.4-8.2h-2v8.2H158V12.2Zm3.5 7.6c.9 0 1.7-.2 2.3-.6.5-.4.8-1.2.8-2.4 0-.5-.1-1.1-.3-1.6a2 2 0 0 0-.9-1c-.5-.2-1.1-.3-1.7-.3h-1.1v5.8h1ZM170.2 28.5A7.6 7.6 0 0 1 169 24v-5.8c0-1.2 0-2.3.4-3.4a4 4 0 0 1 1.5-2c.8-.5 1.9-.7 2.9-.6 1.6 0 2.8.3 3.5 1.2a5.8 5.8 0 0 1 1.1 3.8v.6h-2.3v-.5c0-.6 0-1.3-.2-2 0-.3-.3-.7-.6-1l-1.5-.3c-.6 0-1.2.1-1.6.5a1.7 1.7 0 0 0-.6 1.2 14 14 0 0 0-.2 2v6.6c0 1 .1 2 .5 3 .3.5 1 .8 1.9.8.4 0 .7 0 1-.2.4-.2.7-.4.9-.7.4-1 .6-2 .5-3.1v-1.3H174v-1.7h4.6v8.7H177l-.2-2c-.2.6-.6 1.2-1.2 1.6-.6.4-1.3.6-2 .6a4 4 0 0 1-3.4-1.5ZM183.7 23.6l-3.9-11.3h2.4l2.7 8.5 2.7-8.5h2.4l-3.9 11.3v6.2h-2.3v-6.2h-.1Z"/></g><defs><clipPath id="a"><path fill="#fff" d="M0 0h33.3v37.6H0z"/></clipPath><clipPath id="b"><path fill="#fff" transform="translate(89 12)" d="M0 0h101v18H0z"/></clipPath></defs></svg>
